X: 1
T: Lochleven Side
R: jig
Z: 1997 by John Chambers <jc:trillian.mit.edu>
O: John Bowie  Collection
M: 6/8
L: 1/8
K: A
|: E \
| "A"A3 "E7"BAB | "A"c>BA "D"d2f | "A"e>dc "E7"BAB |1,3 "A"cAE "E7"E2 :|2,4 "A"cAA A2 :|
|: f/g/ \
| "A"a>gf edc | c>de "D"f>af | "A"e>dc "E7"BAB |1 "A"cAE "E7"E2 :|2 "A"cAA A2 ||
|| f/g/ \
| "A"a>gb a2g | "D"f>de  f>af | "A"e>dc "E7"BAB | "A"cAE "E7"E2 ||
|| c/B/ \
| "A"A>EA "E7"BAB | "A"c>BA "D"d2f | "A"e>dc "E7"BAB | "A"cAA A2 |]
